X: 723
T: Shou fu zuoquan cheng
L: 1/8
M: 2/4
K: G
A A A d [I:setbarnb 1]| 
c B A B | 
E F A B/ A/ | 
G F/ E/D2 | 
A d c B | 
A2D E | 
G2F E | 
D D E B, | 
D4 |]

@@@ Tune index: 9597
